docs/assets/img/details/bed.svg

<?xml version="1.0" encoding="UTF-8"?>
<svg width="29px" height="20px" viewBox="0 0 29 20" version="1.1" xmlns="http://www.w3.org/2000/svg" xmlns:xlink="http://www.w3.org/1999/xlink">
    <title>bed(1) copy</title>
    <g id="Welcome" stroke="none" stroke-width="1" fill="none" fill-rule="evenodd">
        <g id="lpw-sale-properties-detailed-page-1.1(expanded)" transform="translate(-300.000000, -6614.000000)" fill="#000000" fill-rule="nonzero">
            <g id="bed(1)-copy" transform="translate(300.000000, 6614.000000)">
                <path d="M26.5314951,8.30153846 L26.5314951,2.96703297 C26.5314951,1.35181319 25.1783879,0.0366483516 23.5165692,0.0366483516 L5.42690058,0.0366483516 C3.76508187,0.0366483516 2.41197466,1.35181319 2.41197466,2.96703297 L2.41197466,8.30153846 C1.03834698,8.57346154 0,9.75736264 0,11.1721429 L0,14.6886264 L0,17.032967 L0,19.3773077 C0,19.7008242 0.270157895,19.9634066 0.603007797,19.9634066 C0.9358577,19.9634066 1.20601559,19.7008242 1.20601559,19.3773077 L1.20601559,17.6190659 L27.7375107,17.6190659 L27.7375107,19.3773077 C27.7375107,19.7008242 28.0076686,19.9634066 28.3405185,19.9634066 C28.6733684,19.9634066 28.9435263,19.7008242 28.9435263,19.3773077 L28.9435263,17.032967 L28.9435263,14.6886264 L28.9435263,11.1721429 C28.9435263,9.75736264 27.9051228,8.57346154 26.5314951,8.30153846 Z M3.61793372,2.96703297 C3.61793372,1.99763736 4.42953801,1.20879121 5.42690058,1.20879121 L23.5165692,1.20879121 C24.5139318,1.20879121 25.3255361,1.99763736 25.3255361,2.96703297 L25.3255361,8.24175824 L23.6660916,8.24175824 C23.7842963,7.9193956 23.8144269,7.57126374 23.7264094,7.22901099 L23.1234016,4.88467033 C22.9219844,4.10049451 22.1996413,3.55307692 21.3687037,3.55307692 L17.4866608,3.55307692 C16.4892982,3.55307692 15.677694,4.34192308 15.677694,5.31131868 L15.677694,7.65565934 C15.677694,7.86197802 15.7211092,8.05769231 15.7886628,8.24175824 L13.154807,8.24175824 C13.2223606,8.05774725 13.2657758,7.86197802 13.2657758,7.65565934 L13.2657758,5.31131868 C13.2657758,4.34192308 12.4541715,3.55307692 11.456809,3.55307692 L7.57476608,3.55307692 C6.74382846,3.55307692 6.02148538,4.10164835 5.82006823,4.88467033 L5.21706043,7.22901099 C5.12904288,7.57126374 5.15917349,7.9193956 5.27737817,8.24175824 L3.61793372,8.24175824 L3.61793372,2.96703297 Z M22.446848,8.0167033 C22.3322612,8.15972527 22.1586004,8.24175824 21.9717115,8.24175824 L17.4866608,8.24175824 C17.1538109,8.24175824 16.883653,7.97917582 16.883653,7.65565934 L16.883653,5.31131868 C16.883653,4.9878022 17.1538109,4.72521978 17.4866608,4.72521978 L21.3687037,4.72521978 C21.6460975,4.72521978 21.8860682,4.90807692 21.9536218,5.16945055 L22.5566296,7.51379121 C22.6024191,7.68967033 22.5626218,7.87368132 22.446848,8.0167033 Z M12.0585731,5.31016484 L12.0585731,7.65450549 C12.0585731,7.97802198 11.7884152,8.2406044 11.4555653,8.2406044 L6.97051462,8.2406044 C6.7835692,8.2406044 6.60990838,8.15857143 6.49537817,8.01554945 C6.38084795,7.87252747 6.33980702,7.68851648 6.38565302,7.51269231 L6.98866082,5.16835165 C7.05740156,4.90813187 7.29737232,4.72527473 7.57357895,4.72412088 L11.4556218,4.72412088 C11.7884152,4.72412088 12.0585731,4.98664835 12.0585731,5.31016484 Z M27.7375107,16.4468681 L1.20595906,16.4468681 L1.20595906,15.2747253 L27.7375107,15.2747253 L27.7375107,16.4468681 L27.7375107,16.4468681 Z M27.7375673,14.1025824 L1.20595906,14.1025824 L1.20595906,11.1721978 C1.20595906,10.2028022 2.01756335,9.41395604 3.01492593,9.41395604 L6.97175828,9.41395604 L11.456809,9.41395604 L17.4867173,9.41395604 L21.971768,9.41395604 L25.9286004,9.41395604 C26.925963,9.41395604 27.7375673,10.2028022 27.7375673,11.1721978 L27.7375673,14.1025824 L27.7375673,14.1025824 Z" id="Shape"></path>
            </g>
        </g>
    </g>
</svg>

<svg width="29" height="20" xmlns="http://www.w3.org/2000/svg"><path d="M26.531 8.302V2.967c0-1.615-1.353-2.93-3.014-2.93H5.427c-1.662 0-3.015 1.315-3.015 2.93v5.335C1.038 8.573 0 9.757 0 11.172v8.205c0 .324.27.586.603.586a.595.595 0 00.603-.586V17.62h26.532v1.758c0 .324.27.586.603.586a.595.595 0 00.603-.586v-8.205c0-1.415-1.039-2.599-2.413-2.87zM3.618 2.967c0-.97.812-1.758 1.809-1.758h18.09c.997 0 1.809.789 1.809 1.758v5.275h-1.66c.118-.323.148-.67.06-1.013l-.603-2.344c-.201-.785-.923-1.332-1.754-1.332h-3.882c-.998 0-1.81.789-1.81 1.758v2.345c0 .206.044.402.112.586h-2.634c.067-.184.11-.38.11-.586V5.31c0-.97-.81-1.758-1.808-1.758H7.575c-.831 0-1.554.549-1.755 1.332l-.603 2.344c-.088.342-.058.69.06 1.013h-1.66V2.967zm18.829 5.05a.605.605 0 01-.475.225h-4.485a.595.595 0 01-.603-.586V5.31c0-.323.27-.586.603-.586h3.882a.6.6 0 01.585.444l.603 2.345a.567.567 0 01-.11.503zM12.059 5.31v2.345c0 .323-.27.586-.603.586H6.97a.605.605 0 01-.476-.225.57.57 0 01-.11-.503l.604-2.345a.604.604 0 01.585-.444h3.882c.332 0 .603.263.603.586zm15.679 11.137H1.206v-1.172h26.532v1.172zm0-2.344H1.206v-2.93c0-.97.812-1.759 1.809-1.759h22.914c.997 0 1.809.789 1.809 1.758v2.93z"/></svg>
